src/assets/svg/accordion-item-icon-2.svg

<svg width="32" height="32" viewBox="0 0 32 32" fill="none" xmlns="http://www.w3.org/2000/svg">
<path d="M18.3144 15.1445C18.6596 15.1445 18.8943 14.9788 19.129 14.5369C19.9713 12.9629 20.6616 12.8524 21.0345 14.2056C21.4073 15.5311 22.8158 15.6692 22.8158 14.3851C22.8158 12.9629 20.5789 11.8029 18.9771 12.3829C17.7896 12.8247 17.2374 15.1445 18.3144 15.1445Z" fill="#006B99"/>
<path d="M10.9132 15.5725C10.9132 14.3437 11.7555 13.8466 12.1559 14.8269C12.6116 15.9177 13.4124 16.2353 13.7162 15.4345C14.2823 13.9708 11.2446 12.5348 9.87759 13.6119C9.33912 14.0399 8.8558 15.2964 9.04914 15.7935C9.28385 16.4148 10.9132 16.2077 10.9132 15.5725Z" fill="#006B99"/>
<path d="M11.8659 22.504C15.5665 24.1471 19.3222 23.65 21.7938 21.1922C24.3897 18.6101 23.3956 15.9176 20.0403 16.4285C19.7226 16.4699 18.7837 16.8151 17.969 17.188C16.3121 17.9336 15.2904 17.9888 12.9982 17.4364C9.22862 16.5527 8.26205 20.9161 11.8659 22.504ZM21.421 17.4917C22.0562 18.2925 21.7662 19.6595 20.7859 20.5847C20.1369 21.1922 20.206 21.2474 19.7641 19.7286C19.5708 19.052 19.3499 18.3616 19.267 18.1821C19.0185 17.5469 20.9792 16.9256 21.421 17.4917ZM17.2787 18.4444C18.0933 18.2235 18.0934 18.2097 18.4661 19.9909C18.8804 21.9516 18.8804 21.9793 18.1762 22.2278C16.8092 22.7111 16.961 22.6835 16.6296 18.6101L17.2787 18.4444ZM13.9786 18.5963H15.5112C15.5112 21.4822 15.5527 21.4408 15.7598 22.4902L15.0142 22.3521C13.8681 22.145 13.9786 22.0621 13.9786 18.5963ZM12.4044 18.1407C12.8877 18.265 13.0949 21.6755 12.6254 21.6755C12.1835 21.6755 11.1617 20.419 11.0236 19.6872C10.8027 18.4859 11.3551 17.8645 12.4044 18.1407Z" fill="#006B99"/>
<path d="M20.855 7.28761C18.6872 6.19681 18.632 6.61107 20.6756 8.59937C27.0686 14.7992 25.3426 24.1333 17.6792 24.8927C11.728 25.4865 7.48894 21.8136 7.59942 16.2904C7.68228 11.8995 10.5681 7.30145 15.3181 6.74913C16.2708 6.63864 16.2984 6.61107 15.8704 6.3763C15.2076 6.00347 13.2745 6.07254 12.1008 6.48679C10.5682 7.03911 9.00783 8.17133 7.7927 9.63501C4.74117 13.2803 5.07259 19.0105 7.47515 22.4073C10.4715 26.6463 20.5099 27.3782 24.0308 23.6086C28.4494 18.8863 26.7648 10.2701 20.855 7.28761Z" fill="#006B99"/>
</svg>

<svg xmlns="http://www.w3.org/2000/svg" width="32" height="32" fill="none">
  <path fill="#006B99" d="M18.3 15.1c.4 0 .6-.1.8-.6.9-1.5 1.6-1.6 2-.3.3 1.3 1.7 1.5 1.7.2 0-1.4-2.2-2.6-3.8-2-1.2.4-1.8 2.7-.7 2.7Zm-7.3.5c0-1.3.8-1.8 1.2-.8.4 1.1 1.2 1.4 1.5.6.6-1.4-2.5-2.9-3.8-1.8-.6.4-1 1.7-.9 2.2.3.6 2 .4 2-.2Zm.9 6.9c3.7 1.6 7.4 1.1 9.9-1.3 2.6-2.6 1.6-5.3-1.8-4.8a8 8 0 0 0-2 .8c-1.7.7-2.7.8-5 .2-3.8-.8-4.7 3.5-1.1 5.1Zm9.5-5c.7.8.4 2.2-.6 3-.7.7-.6.7-1-.8l-.5-1.5c-.3-.7 1.7-1.3 2.1-.7Zm-4.1 1c.8-.3.8-.3 1.2 1.5.4 2 .4 2-.3 2.2-1.4.5-1.2.5-1.6-3.6l.7-.2Zm-3.3.1h1.5c0 2.9 0 2.8.3 3.9l-.8-.1c-1.1-.3-1-.3-1-3.8Zm-1.6-.5c.5.2.7 3.6.2 3.6-.4 0-1.4-1.3-1.6-2-.2-1.2.4-1.8 1.4-1.6Z"/>
  <path fill="#006B99" d="M20.9 7.3c-2.2-1.1-2.3-.7-.2 1.3 6.4 6.2 4.6 15.5-3 16.3-6 .6-10.2-3-10.1-8.6 0-4.4 3-9 7.7-9.6 1 0 1 0 .6-.3-.7-.4-2.6-.3-3.8 0-1.5.6-3 1.8-4.3 3.2-3 3.7-2.7 9.4-.3 12.8 3 4.2 13 5 16.5 1.2 4.4-4.6 2.8-13.3-3-16.3Z"/>
</svg>
